src/assets/images/IconHidePassword.svg

<svg width="33" height="29" viewBox="0 0 33 29" fill="none" xmlns="http://www.w3.org/2000/svg">
<path d="M16.5075 6.00273C20.6494 6.00273 24.0109 9.36426 24.0109 13.5061C24.0109 14.4816 23.8158 15.397 23.4707 16.2524L27.8527 20.6344C30.1187 18.7435 31.9045 16.2974 33 13.5061C30.4038 6.91814 23.9959 2.25102 16.4925 2.25102C14.3915 2.25102 12.3806 2.62619 10.5198 3.3015L13.7613 6.54297C14.6166 6.19782 15.5321 6.00273 16.5075 6.00273ZM1.50068 1.90587L4.92224 5.32742L5.61255 6.01774C3.12142 7.95362 1.17053 10.5348 0 13.5061C2.59618 20.0941 9.00409 24.7613 16.5075 24.7613C18.8336 24.7613 21.0546 24.3111 23.0805 23.5007L23.7108 24.131L28.1078 28.513L30.0136 26.6071L3.40655 0L1.50068 1.90587ZM9.79945 10.2046L12.1255 12.5307C12.0505 12.8458 12.0055 13.176 12.0055 13.5061C12.0055 15.9973 14.0164 18.0082 16.5075 18.0082C16.8377 18.0082 17.1678 17.9632 17.4829 17.8881L19.809 20.2142C18.8035 20.7094 17.693 21.0096 16.5075 21.0096C12.3656 21.0096 9.00409 17.648 9.00409 13.5061C9.00409 12.3206 9.30423 11.2101 9.79945 10.2046ZM16.2674 9.03411L20.9945 13.7613L21.0246 13.5211C21.0246 11.03 19.0136 9.0191 16.5225 9.0191L16.2674 9.03411Z" fill="#343434"/>
</svg>

<svg width="33" height="29" fill="none" xmlns="http://www.w3.org/2000/svg"><path d="M16.508 6.003a7.506 7.506 0 017.503 7.503c0 .976-.195 1.891-.54 2.746l4.382 4.382A17.734 17.734 0 0033 13.506C30.404 6.918 23.996 2.251 16.492 2.251c-2.1 0-4.111.375-5.972 1.05l3.241 3.242a7.283 7.283 0 012.747-.54zM1.5 1.906l3.421 3.421.69.69A17.714 17.714 0 000 13.508C2.596 20.093 9.004 24.76 16.508 24.76c2.326 0 4.547-.45 6.573-1.26l.63.63 4.397 4.382 1.906-1.906L3.407 0 1.5 1.906zm8.298 8.299l2.327 2.326c-.075.315-.12.645-.12.975a4.496 4.496 0 004.502 4.502c.33 0 .66-.045.975-.12l2.326 2.326c-1.006.495-2.116.796-3.302.796a7.506 7.506 0 01-7.503-7.504c0-1.185.3-2.296.795-3.301zm6.468-1.17l4.727 4.726.03-.24a4.496 4.496 0 00-4.502-4.502l-.255.015z" fill="#343434"/></svg>
